X: 1
T: Vanishing Keys
R: reel
M: 4/4
L: 1/8
K: Amaj
|:EAcA BAcA|EABc dAde|fedc dcBA|BAGE (3DED CD|
EAcA BAcA|EABc dBcA|GE {G}(3E^DE B,E {G}(3E^DE|GEDB, A,4:|
|:cAdB e^dea|gebg aged|BcdB e^de=d|cABG AGE2|
cAdA cAdA|B/c/d ea gabg|aefd ecdB|cABG A4:|

composer: Richard Dwyer
